X:1
T:Pána chválit budu
M:4/4
L:1/4
Q:1/4=84
K:C
"C" C E G c | "G" B G D2 | "Am" A c B A | "F" F A G2 |
"C" C E G c | "G" B G D2 | "Am" A G F E | "F" F2 "C" C2 |]
